img/order-group-mob.svg

<svg width="62" height="526" viewBox="0 0 62 526" fill="none" xmlns="http://www.w3.org/2000/svg">
<line x1="31.5" y1="51.0035" x2="30.5" y2="474.004" stroke="white" stroke-width="3"/>
<g filter="url(#filter0_d)">
<circle cx="31" cy="31" r="25" fill="white"/>
</g>
<line x1="30.5" y1="437.5" x2="30.5" y2="524.5" stroke="white" stroke-width="3" stroke-linecap="round" stroke-dasharray="9 7"/>
<g filter="url(#filter1_d)">
<circle cx="31" cy="175" r="25" fill="white"/>
</g>
<g filter="url(#filter2_d)">
<circle cx="31" cy="318" r="25" fill="white"/>
</g>
<g filter="url(#filter3_d)">
<circle cx="31" cy="449" r="25" fill="white"/>
</g>
<path d="M26.7731 28.975L25.8856 25.9875C27.019 25.4375 28.1523 24.8917 29.2856 24.35C30.419 23.8 31.5523 23.25 32.6856 22.7L32.5481 26.1375C31.5815 26.6125 30.619 27.0875 29.6606 27.5625C28.7023 28.0292 27.7398 28.5 26.7731 28.975ZM30.6981 40C30.6981 39.1083 30.6981 38.2458 30.6981 37.4125C30.6981 36.5708 30.6981 35.6333 30.6981 34.6V29.55C30.6981 28.6917 30.6981 27.8375 30.6981 26.9875C30.6981 26.1292 30.6981 25.2667 30.6981 24.4L32.6856 22.7L34.5481 22.8125C34.5481 23.7875 34.5481 24.775 34.5481 25.775C34.5481 26.7667 34.5481 27.775 34.5481 28.8V34.6C34.5481 35.6333 34.5481 36.5708 34.5481 37.4125C34.5481 38.2458 34.5481 39.1083 34.5481 40H30.6981Z" fill="black"/>
<path d="M25.4583 184V181.4C25.9166 181.008 26.3708 180.621 26.8208 180.237C27.2791 179.854 27.7375 179.471 28.1958 179.087C29.2625 178.187 30.1791 177.346 30.9458 176.562C31.7125 175.779 32.3 175.025 32.7083 174.3C33.1166 173.575 33.3208 172.846 33.3208 172.112C33.3208 171.312 33.0958 170.712 32.6458 170.312C32.1958 169.904 31.5166 169.7 30.6083 169.7C30.2166 169.7 29.8125 169.746 29.3958 169.837C28.9875 169.921 28.575 170.046 28.1583 170.212C27.7416 170.371 27.325 170.558 26.9083 170.775C26.5 170.992 26.1 171.233 25.7083 171.5L25.3708 167.825C25.7541 167.642 26.175 167.471 26.6333 167.312C27.1 167.146 27.5916 167 28.1083 166.875C28.6333 166.742 29.1708 166.637 29.7208 166.562C30.2791 166.487 30.8375 166.45 31.3958 166.45C32.6625 166.45 33.7333 166.658 34.6083 167.075C35.4916 167.483 36.1583 168.075 36.6083 168.85C37.0666 169.617 37.2958 170.537 37.2958 171.612C37.2958 172.496 37.1125 173.375 36.7458 174.25C36.3791 175.117 35.8208 175.987 35.0708 176.862C34.3291 177.737 33.3875 178.621 32.2458 179.512L29.7833 181.45L29.3083 180.7H32.4083C33.2583 180.7 34.1083 180.7 34.9583 180.7C35.8083 180.7 36.6541 180.7 37.4958 180.7V184H25.4583Z" fill="black"/>
<path d="M31.2121 327.325C30.6121 327.325 30.0246 327.292 29.4496 327.225C28.8829 327.158 28.3371 327.067 27.8121 326.95C27.2954 326.825 26.8121 326.683 26.3621 326.525C25.9204 326.367 25.5204 326.2 25.1621 326.025L25.4496 322.525C25.8996 322.758 26.3538 322.971 26.8121 323.162C27.2704 323.354 27.7246 323.521 28.1746 323.662C28.6329 323.796 29.0829 323.9 29.5246 323.975C29.9746 324.05 30.4038 324.087 30.8121 324.087C31.8954 324.087 32.6704 323.887 33.1371 323.487C33.6038 323.079 33.8371 322.558 33.8371 321.925C33.8371 321.183 33.5371 320.625 32.9371 320.25C32.3371 319.867 31.4788 319.675 30.3621 319.675C29.9954 319.675 29.6371 319.675 29.2871 319.675C28.9454 319.675 28.5996 319.675 28.2496 319.675V316.85C28.5579 316.85 28.8663 316.85 29.1746 316.85C29.4913 316.85 29.8079 316.85 30.1246 316.85C30.8829 316.85 31.4996 316.762 31.9746 316.587C32.4496 316.404 32.7954 316.15 33.0121 315.825C33.2371 315.5 33.3496 315.121 33.3496 314.687C33.3496 314.021 33.1038 313.525 32.6121 313.2C32.1288 312.867 31.4871 312.7 30.6871 312.7C30.2954 312.7 29.8913 312.742 29.4746 312.825C29.0663 312.908 28.6538 313.025 28.2371 313.175C27.8204 313.317 27.4079 313.487 26.9996 313.687C26.5913 313.887 26.1954 314.112 25.8121 314.362L25.4621 310.812C25.8371 310.629 26.2496 310.454 26.6996 310.287C27.1496 310.121 27.6288 309.975 28.1371 309.85C28.6454 309.725 29.1704 309.625 29.7121 309.55C30.2538 309.475 30.7954 309.437 31.3371 309.437C32.6038 309.437 33.6829 309.621 34.5746 309.987C35.4663 310.346 36.1454 310.858 36.6121 311.525C37.0871 312.183 37.3246 312.962 37.3246 313.863C37.3246 314.579 37.1829 315.2 36.8996 315.725C36.6163 316.25 36.2329 316.679 35.7496 317.012C35.2746 317.337 34.7454 317.562 34.1621 317.687V317.987C34.6038 318.071 35.0413 318.217 35.4746 318.425C35.9079 318.625 36.2996 318.9 36.6496 319.25C36.9996 319.6 37.2788 320.025 37.4871 320.525C37.6954 321.025 37.7996 321.612 37.7996 322.287C37.7996 323.254 37.5621 324.121 37.0871 324.887C36.6204 325.646 35.8996 326.242 34.9246 326.675C33.9579 327.108 32.7204 327.325 31.2121 327.325Z" fill="black"/>
<path d="M31.6965 457C31.6965 456.167 31.6965 455.371 31.6965 454.612C31.6965 453.846 31.6965 452.967 31.6965 451.975L31.909 451.425V446.6C31.909 445.742 31.909 444.887 31.909 444.037C31.909 443.179 31.909 442.321 31.909 441.462L34.5965 440.4C34.1548 441.033 33.7257 441.65 33.309 442.25C32.8923 442.842 32.4715 443.433 32.0465 444.025L29.2965 447.937C28.9215 448.462 28.5507 448.983 28.184 449.5C27.8257 450.017 27.4632 450.542 27.0965 451.075L26.9715 450.237H32.659L33.059 450.087C33.5507 450.087 34.0965 450.087 34.6965 450.087C35.2965 450.087 35.8882 450.087 36.4715 450.087C37.0548 450.087 37.5715 450.087 38.0215 450.087V453.387C37.5715 453.387 37.0548 453.387 36.4715 453.387C35.8882 453.387 35.2965 453.387 34.6965 453.387C34.0965 453.387 33.5507 453.387 33.059 453.387H23.9465V450.812C24.2715 450.346 24.634 449.829 25.034 449.262C25.4423 448.687 25.8507 448.112 26.259 447.537C26.6757 446.954 27.059 446.417 27.409 445.925L29.4715 442.987C29.8548 442.454 30.234 441.925 30.609 441.4C30.984 440.867 31.359 440.333 31.734 439.8H35.534C35.534 440.833 35.534 441.85 35.534 442.85C35.534 443.842 35.534 444.833 35.534 445.825V451.975C35.534 452.967 35.534 453.846 35.534 454.612C35.534 455.371 35.534 456.167 35.534 457H31.6965Z" fill="black"/>
<defs>
<filter id="filter0_d" x="0" y="0" width="62" height="62" filterUnits="userSpaceOnUse" color-interpolation-filters="sRGB">
<feFlood flood-opacity="0" result="BackgroundImageFix"/>
<feColorMatrix in="SourceAlpha" type="matrix" values="0 0 0 0 0 0 0 0 0 0 0 0 0 0 0 0 0 0 127 0" result="hardAlpha"/>
<feMorphology radius="1" operator="dilate" in="SourceAlpha" result="effect1_dropShadow"/>
<feOffset/>
<feGaussianBlur stdDeviation="2.5"/>
<feComposite in2="hardAlpha" operator="out"/>
<feColorMatrix type="matrix" values="0 0 0 0 0 0 0 0 0 0 0 0 0 0 0 0 0 0 0.59 0"/>
<feBlend mode="normal" in2="BackgroundImageFix" result="effect1_dropShadow"/>
<feBlend mode="normal" in="SourceGraphic" in2="effect1_dropShadow" result="shape"/>
</filter>
<filter id="filter1_d" x="0" y="144" width="62" height="62" filterUnits="userSpaceOnUse" color-interpolation-filters="sRGB">
<feFlood flood-opacity="0" result="BackgroundImageFix"/>
<feColorMatrix in="SourceAlpha" type="matrix" values="0 0 0 0 0 0 0 0 0 0 0 0 0 0 0 0 0 0 127 0" result="hardAlpha"/>
<feMorphology radius="1" operator="dilate" in="SourceAlpha" result="effect1_dropShadow"/>
<feOffset/>
<feGaussianBlur stdDeviation="2.5"/>
<feComposite in2="hardAlpha" operator="out"/>
<feColorMatrix type="matrix" values="0 0 0 0 0 0 0 0 0 0 0 0 0 0 0 0 0 0 0.59 0"/>
<feBlend mode="normal" in2="BackgroundImageFix" result="effect1_dropShadow"/>
<feBlend mode="normal" in="SourceGraphic" in2="effect1_dropShadow" result="shape"/>
</filter>
<filter id="filter2_d" x="0" y="287" width="62" height="62" filterUnits="userSpaceOnUse" color-interpolation-filters="sRGB">
<feFlood flood-opacity="0" result="BackgroundImageFix"/>
<feColorMatrix in="SourceAlpha" type="matrix" values="0 0 0 0 0 0 0 0 0 0 0 0 0 0 0 0 0 0 127 0" result="hardAlpha"/>
<feMorphology radius="1" operator="dilate" in="SourceAlpha" result="effect1_dropShadow"/>
<feOffset/>
<feGaussianBlur stdDeviation="2.5"/>
<feComposite in2="hardAlpha" operator="out"/>
<feColorMatrix type="matrix" values="0 0 0 0 0 0 0 0 0 0 0 0 0 0 0 0 0 0 0.59 0"/>
<feBlend mode="normal" in2="BackgroundImageFix" result="effect1_dropShadow"/>
<feBlend mode="normal" in="SourceGraphic" in2="effect1_dropShadow" result="shape"/>
</filter>
<filter id="filter3_d" x="0" y="418" width="62" height="62" filterUnits="userSpaceOnUse" color-interpolation-filters="sRGB">
<feFlood flood-opacity="0" result="BackgroundImageFix"/>
<feColorMatrix in="SourceAlpha" type="matrix" values="0 0 0 0 0 0 0 0 0 0 0 0 0 0 0 0 0 0 127 0" result="hardAlpha"/>
<feMorphology radius="1" operator="dilate" in="SourceAlpha" result="effect1_dropShadow"/>
<feOffset/>
<feGaussianBlur stdDeviation="2.5"/>
<feComposite in2="hardAlpha" operator="out"/>
<feColorMatrix type="matrix" values="0 0 0 0 0 0 0 0 0 0 0 0 0 0 0 0 0 0 0.59 0"/>
<feBlend mode="normal" in2="BackgroundImageFix" result="effect1_dropShadow"/>
<feBlend mode="normal" in="SourceGraphic" in2="effect1_dropShadow" result="shape"/>
</filter>
</defs>
</svg>

<svg xmlns="http://www.w3.org/2000/svg" fill="none" viewBox="0 0 62 526"><path stroke="#fff" stroke-width="3" d="M31.5 51.004l-1 423"/><g filter="url(#filter0_d)"><circle cx="31" cy="31" r="25" fill="#fff"/></g><path stroke="#fff" stroke-dasharray="9 7" stroke-linecap="round" stroke-width="3" d="M30.5 437.5v87"/><g filter="url(#filter1_d)"><circle cx="31" cy="175" r="25" fill="#fff"/></g><g filter="url(#filter2_d)"><circle cx="31" cy="318" r="25" fill="#fff"/></g><g filter="url(#filter3_d)"><circle cx="31" cy="449" r="25" fill="#fff"/></g><path fill="#000" d="M26.773 28.975l-.887-2.988c1.133-.55 2.266-1.095 3.4-1.637l3.4-1.65-.138 3.438c-.967.474-1.929.95-2.887 1.424a914.9 914.9 0 0 0-2.888 1.413zM30.698 40v-2.587V29.55v-2.563V24.4l1.988-1.7 1.862.113V40h-3.85zM25.458 184v-2.6l1.363-1.163 1.375-1.15a39.435 39.435 0 0 0 2.75-2.525c.766-.783 1.354-1.537 1.762-2.262.409-.725.613-1.454.613-2.188 0-.8-.225-1.4-.675-1.8-.45-.408-1.13-.612-2.038-.612-.391 0-.796.046-1.212.137-.409.084-.821.209-1.238.375-.416.159-.833.346-1.25.563-.408.217-.808.458-1.2.725l-.337-3.675c.383-.183.804-.354 1.262-.513.467-.166.959-.312 1.475-.437a14.587 14.587 0 0 1 1.613-.313 12.567 12.567 0 0 1 1.675-.112c1.267 0 2.337.208 3.212.625.884.408 1.55 1 2 1.775.459.767.688 1.687.688 2.762 0 .884-.184 1.763-.55 2.638-.367.867-.925 1.737-1.675 2.612-.742.875-1.683 1.759-2.825 2.65l-2.463 1.938-.475-.75h8.188v3.3H25.458zM31.212 327.325c-.6 0-1.187-.033-1.762-.1a16.355 16.355 0 0 1-1.638-.275c-.517-.125-1-.267-1.45-.425a11.782 11.782 0 0 1-1.2-.5l.288-3.5c.45.233.904.446 1.362.637.458.192.913.359 1.363.5.458.134.908.238 1.35.313.45.075.879.112 1.287.112 1.083 0 1.858-.2 2.325-.6.467-.408.7-.929.7-1.562 0-.742-.3-1.3-.9-1.675-.6-.383-1.458-.575-2.575-.575H28.25v-2.825h1.875c.758 0 1.375-.088 1.85-.263.475-.183.82-.437 1.037-.762.225-.325.338-.704.338-1.138 0-.666-.246-1.162-.738-1.487-.483-.333-1.125-.5-1.925-.5-.392 0-.796.042-1.212.125-.409.083-.821.2-1.238.35-.417.142-.83.312-1.237.512-.409.2-.805.425-1.188.675l-.35-3.55a13.397 13.397 0 0 1 2.675-.962 15.485 15.485 0 0 1 1.575-.3 11.835 11.835 0 0 1 1.625-.113c1.267 0 2.346.184 3.238.55.891.359 1.57.871 2.037 1.538.475.658.713 1.437.713 2.338 0 .716-.142 1.337-.425 1.862a3.636 3.636 0 0 1-1.15 1.287 4.423 4.423 0 0 1-1.588.675v.3c.442.084.88.23 1.313.438.433.2.825.475 1.175.825.35.35.629.775.837 1.275.208.5.313 1.087.313 1.762 0 .967-.238 1.834-.713 2.6-.467.759-1.187 1.355-2.162 1.788-.967.433-2.205.65-3.713.65zM31.697 457v-2.388-2.637l.212-.55V446.6v-2.563-2.575l2.688-1.062c-.442.633-.871 1.25-1.288 1.85-.417.592-.837 1.183-1.262 1.775l-2.75 3.912-1.113 1.563-1.088 1.575-.125-.838h5.688l.4-.15h4.962v3.3H23.948v-2.575c.325-.466.687-.983 1.087-1.55l1.225-1.725 1.15-1.612 2.063-2.938 1.137-1.587 1.125-1.6h3.8V457h-3.837z"/><defs><filter id="filter0_d" width="62" height="62" x="0" y="0" color-interpolation-filters="sRGB" filterUnits="userSpaceOnUse"><feFlood flood-opacity="0" result="BackgroundImageFix"/><feColorMatrix in="SourceAlpha" result="hardAlpha" values="0 0 0 0 0 0 0 0 0 0 0 0 0 0 0 0 0 0 127 0"/><feMorphology in="SourceAlpha" operator="dilate" radius="1" result="effect1_dropShadow"/><feOffset/><feGaussianBlur stdDeviation="2.5"/><feComposite in2="hardAlpha" operator="out"/><feColorMatrix values="0 0 0 0 0 0 0 0 0 0 0 0 0 0 0 0 0 0 0.59 0"/><feBlend in2="BackgroundImageFix" result="effect1_dropShadow"/><feBlend in="SourceGraphic" in2="effect1_dropShadow" result="shape"/></filter><filter id="filter1_d" width="62" height="62" x="0" y="144" color-interpolation-filters="sRGB" filterUnits="userSpaceOnUse"><feFlood flood-opacity="0" result="BackgroundImageFix"/><feColorMatrix in="SourceAlpha" result="hardAlpha" values="0 0 0 0 0 0 0 0 0 0 0 0 0 0 0 0 0 0 127 0"/><feMorphology in="SourceAlpha" operator="dilate" radius="1" result="effect1_dropShadow"/><feOffset/><feGaussianBlur stdDeviation="2.5"/><feComposite in2="hardAlpha" operator="out"/><feColorMatrix values="0 0 0 0 0 0 0 0 0 0 0 0 0 0 0 0 0 0 0.59 0"/><feBlend in2="BackgroundImageFix" result="effect1_dropShadow"/><feBlend in="SourceGraphic" in2="effect1_dropShadow" result="shape"/></filter><filter id="filter2_d" width="62" height="62" x="0" y="287" color-interpolation-filters="sRGB" filterUnits="userSpaceOnUse"><feFlood flood-opacity="0" result="BackgroundImageFix"/><feColorMatrix in="SourceAlpha" result="hardAlpha" values="0 0 0 0 0 0 0 0 0 0 0 0 0 0 0 0 0 0 127 0"/><feMorphology in="SourceAlpha" operator="dilate" radius="1" result="effect1_dropShadow"/><feOffset/><feGaussianBlur stdDeviation="2.5"/><feComposite in2="hardAlpha" operator="out"/><feColorMatrix values="0 0 0 0 0 0 0 0 0 0 0 0 0 0 0 0 0 0 0.59 0"/><feBlend in2="BackgroundImageFix" result="effect1_dropShadow"/><feBlend in="SourceGraphic" in2="effect1_dropShadow" result="shape"/></filter><filter id="filter3_d" width="62" height="62" x="0" y="418" color-interpolation-filters="sRGB" filterUnits="userSpaceOnUse"><feFlood flood-opacity="0" result="BackgroundImageFix"/><feColorMatrix in="SourceAlpha" result="hardAlpha" values="0 0 0 0 0 0 0 0 0 0 0 0 0 0 0 0 0 0 127 0"/><feMorphology in="SourceAlpha" operator="dilate" radius="1" result="effect1_dropShadow"/><feOffset/><feGaussianBlur stdDeviation="2.5"/><feComposite in2="hardAlpha" operator="out"/><feColorMatrix values="0 0 0 0 0 0 0 0 0 0 0 0 0 0 0 0 0 0 0.59 0"/><feBlend in2="BackgroundImageFix" result="effect1_dropShadow"/><feBlend in="SourceGraphic" in2="effect1_dropShadow" result="shape"/></filter></defs></svg>
